components/static/ic-tequila.svg

<svg xmlns="http://www.w3.org/2000/svg" width="25.054" height="25.054" viewBox="0 0 25.054 25.054"><g transform="translate(-1296 -1933)"><g transform="translate(1296 1933)" fill="none" stroke="#00a991" stroke-width="3"><path d="M0,0H25.054a0,0,0,0,1,0,0V15.054a10,10,0,0,1-10,10H10a10,10,0,0,1-10-10V0A0,0,0,0,1,0,0Z" stroke="none"/><path d="M3,1.5H22.054a1.5,1.5,0,0,1,1.5,1.5V15.054a8.5,8.5,0,0,1-8.5,8.5H10a8.5,8.5,0,0,1-8.5-8.5V3A1.5,1.5,0,0,1,3,1.5Z" fill="none"/></g><g transform="translate(1299.369 1947.473)" fill="none"><path d="M1.343,0H6.08A1.343,1.343,0,0,1,7.424,1.343V6.08A1.343,1.343,0,0,1,6.08,7.424H1.343A1.343,1.343,0,0,1,0,6.08V1.343A1.343,1.343,0,0,1,1.343,0Z" stroke="none"/><path d="M 2.000002384185791 2.000003814697266 L 2.000002384185791 5.423563957214355 L 5.423642158508301 5.423563957214355 L 5.423642158508301 2.000003814697266 L 2.000002384185791 2.000003814697266 M 1.343182563781738 3.814697265625e-06 L 6.080462455749512 3.814697265625e-06 C 6.822282314300537 3.814697265625e-06 7.423642635345459 0.6013541221618652 7.423642635345459 1.343173980712891 L 7.423642635345459 6.08039379119873 C 7.423642635345459 6.822203636169434 6.822282314300537 7.423563957214355 6.080462455749512 7.423563957214355 L 1.343182563781738 7.423563957214355 C 0.6013627052307129 7.423563957214355 2.384185791015625e-06 6.822203636169434 2.384185791015625e-06 6.08039379119873 L 2.384185791015625e-06 1.343173980712891 C 2.384185791015625e-06 0.6013541221618652 0.6013627052307129 3.814697265625e-06 1.343182563781738 3.814697265625e-06 Z" stroke="none" fill="#00a991"/></g><g transform="translate(1305.197 1943.977)" fill="none"><path d="M1.343,0H6.08A1.343,1.343,0,0,1,7.424,1.343V6.08A1.343,1.343,0,0,1,6.08,7.424H1.343A1.343,1.343,0,0,1,0,6.08V1.343A1.343,1.343,0,0,1,1.343,0Z" stroke="none"/><path d="M 2.000002384185791 2.000003814697266 L 2.000002384185791 5.423563957214355 L 5.423642158508301 5.423563957214355 L 5.423642158508301 2.000003814697266 L 2.000002384185791 2.000003814697266 M 1.343182563781738 3.814697265625e-06 L 6.080462455749512 3.814697265625e-06 C 6.822282314300537 3.814697265625e-06 7.423642635345459 0.6013541221618652 7.423642635345459 1.343173980712891 L 7.423642635345459 6.08039379119873 C 7.423642635345459 6.822203636169434 6.822282314300537 7.423563957214355 6.080462455749512 7.423563957214355 L 1.343182563781738 7.423563957214355 C 0.6013627052307129 7.423563957214355 2.384185791015625e-06 6.822203636169434 2.384185791015625e-06 6.08039379119873 L 2.384185791015625e-06 1.343173980712891 C 2.384185791015625e-06 0.6013541221618652 0.6013627052307129 3.814697265625e-06 1.343182563781738 3.814697265625e-06 Z" stroke="none" fill="#00a991"/></g><g transform="translate(1311.024 1947.473)" fill="none"><path d="M1.343,0H6.08A1.343,1.343,0,0,1,7.424,1.343V6.08A1.343,1.343,0,0,1,6.08,7.424H1.343A1.343,1.343,0,0,1,0,6.08V1.343A1.343,1.343,0,0,1,1.343,0Z" stroke="none"/><path d="M 2.000002384185791 2.000003814697266 L 2.000002384185791 5.423563957214355 L 5.423642158508301 5.423563957214355 L 5.423642158508301 2.000003814697266 L 2.000002384185791 2.000003814697266 M 1.343182563781738 3.814697265625e-06 L 6.080462455749512 3.814697265625e-06 C 6.822282314300537 3.814697265625e-06 7.423642635345459 0.6013541221618652 7.423642635345459 1.343173980712891 L 7.423642635345459 6.08039379119873 C 7.423642635345459 6.822203636169434 6.822282314300537 7.423563957214355 6.080462455749512 7.423563957214355 L 1.343182563781738 7.423563957214355 C 0.6013627052307129 7.423563957214355 2.384185791015625e-06 6.822203636169434 2.384185791015625e-06 6.08039379119873 L 2.384185791015625e-06 1.343173980712891 C 2.384185791015625e-06 0.6013541221618652 0.6013627052307129 3.814697265625e-06 1.343182563781738 3.814697265625e-06 Z" stroke="none" fill="#00a991"/></g></g></svg>

<svg height="25.054" viewBox="0 0 25.054 25.054" width="25.054" xmlns="http://www.w3.org/2000/svg"><g fill="none"><g stroke="#00a991" stroke-width="3"><path d="m0 0h25.054a0 0 0 0 1 0 0v15.054a10 10 0 0 1 -10 10h-5.054a10 10 0 0 1 -10-10v-15.054a0 0 0 0 1 0 0z" stroke="none"/><path d="m3 1.5h19.054a1.5 1.5 0 0 1 1.5 1.5v12.054a8.5 8.5 0 0 1 -8.5 8.5h-5.054a8.5 8.5 0 0 1 -8.5-8.5v-12.054a1.5 1.5 0 0 1 1.5-1.5z" fill="none"/></g><g transform="translate(3.369 14.473)"><path d="m1.343 0h4.737a1.343 1.343 0 0 1 1.344 1.343v4.737a1.343 1.343 0 0 1 -1.344 1.344h-4.737a1.343 1.343 0 0 1 -1.343-1.344v-4.737a1.343 1.343 0 0 1 1.343-1.343z"/><path d="m2.00000238 2.00000381v3.42356015h3.42363978v-3.42356015zm-.65681982-2h4.7372799c.74181985 0 1.34318018.60135031 1.34318018 1.34317017v4.73721981c0 .74180985-.60136033 1.34317017-1.34318018 1.34317017h-4.7372799c-.74181985 0-1.34318018-.60136032-1.34318018-1.34317017v-4.73721981c0-.74181986.60136033-1.34317017 1.34318018-1.34317017z" fill="#00a991"/></g><g transform="translate(9.197 10.977)"><path d="m1.343 0h4.737a1.343 1.343 0 0 1 1.344 1.343v4.737a1.343 1.343 0 0 1 -1.344 1.344h-4.737a1.343 1.343 0 0 1 -1.343-1.344v-4.737a1.343 1.343 0 0 1 1.343-1.343z"/><path d="m2.00000238 2.00000381v3.42356015h3.42363978v-3.42356015zm-.65681982-2h4.7372799c.74181985 0 1.34318018.60135031 1.34318018 1.34317017v4.73721981c0 .74180985-.60136033 1.34317017-1.34318018 1.34317017h-4.7372799c-.74181985 0-1.34318018-.60136032-1.34318018-1.34317017v-4.73721981c0-.74181986.60136033-1.34317017 1.34318018-1.34317017z" fill="#00a991"/></g><g transform="translate(15.024 14.473)"><path d="m1.343 0h4.737a1.343 1.343 0 0 1 1.344 1.343v4.737a1.343 1.343 0 0 1 -1.344 1.344h-4.737a1.343 1.343 0 0 1 -1.343-1.344v-4.737a1.343 1.343 0 0 1 1.343-1.343z"/><path d="m2.00000238 2.00000381v3.42356015h3.42363978v-3.42356015zm-.65681982-2h4.7372799c.74181985 0 1.34318018.60135031 1.34318018 1.34317017v4.73721981c0 .74180985-.60136033 1.34317017-1.34318018 1.34317017h-4.7372799c-.74181985 0-1.34318018-.60136032-1.34318018-1.34317017v-4.73721981c0-.74181986.60136033-1.34317017 1.34318018-1.34317017z" fill="#00a991"/></g></g></svg>
